src/assets/svg/icons/fa/nuevos/classic/light/tower-control classic light.svg

<svg xmlns="http://www.w3.org/2000/svg" viewBox="0 0 448 512"><!--! Font Awesome Pro 6.4.0 by @fontawesome - https://fontawesome.com License - https://fontawesome.com/license (Commercial License) Copyright 2023 Fonticons, Inc. --><path d="M160 16c0-8.8 7.2-16 16-16h48 48c8.8 0 16 7.2 16 16s-7.2 16-16 16H240V64h48c17.7 0 32 14.3 32 32v32h80.9c26.2 0 45.3 24.8 38.7 50.1L402.6 320.2c7.6 1.2 13.4 7.8 13.4 15.8c0 8.8-7.2 16-16 16H352V496c0 8.8-7.2 16-16 16s-16-7.2-16-16V352l-192 0V496c0 8.8-7.2 16-16 16s-16-7.2-16-16V352H48c-8.8 0-16-7.2-16-16c0-8 5.8-14.6 13.4-15.8L8.4 178.1C1.8 152.8 20.9 128 47.1 128H128V96c0-17.7 14.3-32 32-32h48V32H176c-8.8 0-16-7.2-16-16zM128 160.2c0-.1 0-.1 0-.2H47.1c-5.2 0-9.1 5-7.7 10L78.5 320H128V160.2zM160 320H288V160.2c0-.1 0-.1 0-.2H160V320zM320 160V320l49.6 0 39.1-150c1.3-5.1-2.5-10-7.7-10H320zm-32-32V96H160v32H288z"/></svg>

<svg xmlns="http://www.w3.org/2000/svg" viewBox="0 0 448 512"><path d="M160 16C160 7.164 167.2 0 176 0H272C280.8 0 288 7.164 288 16C288 24.84 280.8 32 272 32H240V64H288C305.7 64 320 78.33 320 96V128H400.9C427.1 128 446.3 152.8 439.6 178.1L402.6 320.2C410.2 321.4 416 328 416 336C416 344.8 408.8 352 400 352H352V496C352 504.8 344.8 512 336 512C327.2 512 320 504.8 320 496V352H128V496C128 504.8 120.8 512 112 512C103.2 512 96 504.8 96 496V352H48C39.16 352 32 344.8 32 336C32 328 37.82 321.4 45.43 320.2L8.361 178.1C1.75 152.8 20.87 127.1 47.07 127.1H128V95.1C128 78.33 142.3 63.1 160 63.1H208V31.1H176C167.2 31.1 160 24.84 160 15.1L160 16zM128 160.2L127.1 160H47.07C41.83 160 38 164.1 39.32 170L78.45 320H128L128 160.2zM160 320H288V160.2L288 160H160V320zM320 160V320H369.6L408.7 170C410 164.1 406.2 159.1 400.9 159.1L320 160zM288 96H159.1V128H288V96z"/></svg>
